packages/sights/assets/overlays/6MR5C13s.svg

<svg width="500" height="375" viewBox="0 0 500 375" fill="none" xmlns="http://www.w3.org/2000/svg">
<path d="M143.069 5C143.069 5 110.509 16 108.069 17.79L101.189 26.2L100.579 39.5L38.9595 94.68L7.01953 113.94" stroke="white" stroke-miterlimit="10"/>
<path d="M7.0293 259.55L27.0293 278.81C27.0293 278.81 11.0293 210.25 57.0293 196.49C57.0293 196.49 152.189 174.02 193.919 330.4L366.869 369.31" stroke="white" stroke-miterlimit="10"/>
<path d="M493.029 86.4299C493.029 86.4299 146.739 88.2599 118.309 89.6399C118.309 89.6399 189.849 7.41994 194.439 5.18994" stroke="white" stroke-miterlimit="10"/>
<path d="M21.6293 105.14L28.6493 112.11V118.76L9.38929 150.4L7.0293 151.78" stroke="white" stroke-miterlimit="10"/>
<path d="M492.53 341.41L192.14 279.96C192.14 279.96 156.83 187.78 95.8398 179.52" stroke="white" stroke-miterlimit="10"/>
<path d="M33.7 189.15C33.7 189.15 12.83 201.77 11 243.5L7 241.89" stroke="white" stroke-miterlimit="10"/>
<path d="M380.17 5C380.17 5 390.25 71.1 392.09 87L405.39 137.83C405.39 137.83 406.96 244.42 401.5 274C401.5 274 400.2 288.82 403.86 297.08L410.67 318.94L403.1 361.59L395.42 369.5" stroke="white" stroke-miterlimit="10"/>
<path d="M147.659 135.61L141.469 138.37L139.059 139.05L118.309 138.14L117.159 137.33L120.949 134.33L120.259 133.07C120.259 133.07 108.339 133.64 107.529 135.25L105.129 138V144.42L106.849 145.11C106.849 145.11 153.849 148.32 157.409 148.11L160.959 146.62V141.12L158.209 138.59C158.209 138.59 152.479 135.73 147.659 135.61Z" stroke="white" stroke-miterlimit="10"/>
<path d="M491.46 159.65L454.46 158.12L452.46 156.9L447.87 151.24L444.81 150.17L420.51 152.62L418.51 154.91L419.58 164.39L422.18 165.77C422.18 165.77 478.13 169.89 492.5 171.42" stroke="white" stroke-miterlimit="10"/>
<path d="M190.75 319L185.57 330.1C185.57 330.1 153.78 365.26 150.41 368.01" stroke="white" stroke-miterlimit="10"/>
<path d="M102.958 201.83L73.0384 207.52C73.0384 207.52 22.1384 221.46 28.6284 282.36C28.6284 282.36 37.2684 340.75 84.3484 369.52" stroke="white" stroke-miterlimit="10"/>
</svg>

<svg width="500" height="375" fill="none" xmlns="http://www.w3.org/2000/svg"><path d="M143.069 5s-32.56 11-35 12.79l-6.88 8.41-.61 13.3-61.62 55.18-31.94 19.26M7.03 259.55l20 19.26s-16-68.56 30-82.32c0 0 95.159-22.47 136.889 133.91l172.95 38.91M493.029 86.43s-346.29 1.83-374.72 3.21c0 0 71.54-82.22 76.13-84.45M21.63 105.14l7.02 6.97v6.65L9.39 150.4l-2.36 1.38" stroke="#fff" stroke-miterlimit="10"/><path d="m492.53 341.41-300.39-61.45s-35.31-92.18-96.3-100.44M33.7 189.15S12.83 201.77 11 243.5l-4-1.61" stroke="#fff" stroke-miterlimit="10"/><path d="M380.17 5s10.08 66.1 11.92 82l13.3 50.83s1.57 106.59-3.89 136.17c0 0-1.3 14.82 2.36 23.08l6.81 21.86-7.57 42.65-7.68 7.91M147.659 135.61l-6.19 2.76-2.41.68-20.75-.91-1.15-.81 3.79-3-.69-1.26s-11.92.57-12.73 2.18l-2.4 2.75v6.42l1.72.69s47 3.21 50.56 3l3.55-1.49v-5.5l-2.75-2.53s-5.73-2.86-10.55-2.98ZM491.46 159.65l-37-1.53-2-1.22-4.59-5.66-3.06-1.07-24.3 2.45-2 2.29 1.07 9.48 2.6 1.38s55.95 4.12 70.32 5.65M190.75 319l-5.18 11.1s-31.79 35.16-35.16 37.91M102.958 201.83l-29.92 5.69s-50.9 13.94-44.41 74.84c0 0 8.64 58.39 55.72 87.16" stroke="#fff" stroke-miterlimit="10"/></svg>
